X:1
T:Title
%%score ( 1 2 ) ( 3 4 )
L:1/8
Q:1/4=100
M:4/4
K:G
V:1 treble nm="Grand Piano, Soprano"
V:2 treble 
V:3 bass nm="Choir Pad, The Lowly Child"
V:4 bass 
V:1
 BAGF A2 G2 | D^CDG F2 E2 | z EFG A2 [D_B]2 | [DB]4 z4 | BAGF A2 G2 | D^CDG F2 E2 | %6
w: By~Charles~S.~Brown * * * * *||||||
 z EFG A2 [DB]2 | [B,G]4 z4 | B,3- [B,D] [CE]2 [CG]2 | B,3- [B,D] [CE]2 [CG]2 | B3 D [CE]2 [CG]2 | %11
w: |||||
 [CA]3 [B,G] [B,G]4- | [B,G]4 z4 |] %13
w: ||
V:2
 B,8 | B,4 =C4 | D6 z2 | x8 | B,8 | B,4 =C4 | D6 z2 | x8 | D4 z4 | D4 z4 | B,4 z4 | x8 | x8 |] %13
V:3
 D,2 G,2 D,2 G,2 | G,2- [D,G,]2 A,2 G,2 | C2- [D,C-]2 [F,C]2 D,2 | [G,,D,]4 z4 | %4
 G,,2- [G,,-G,]2 [G,,-D,]2 [G,,G,]2 | G,2- [D,G,]2 A,2 G,2 | C2- [D,C-]2 [F,C]2 D,2 | [G,,D,]4 z4 | %8
 G,4 z4 | G,4 z4 | G,4 z4 | [D,F,]3 [G,,G,] [G,,G,]4- | [G,,G,]4 z4 |] %13
V:4
 G,,8 | G,,2 z2 D,4 | F,2 z2 z4 | x8 | D,2 z2 z4 | G,,2 z2 D,4 | F,2 z2 z4 | x8 | %8
 G,,2 D,2 [C,G,]2 [E,G,]2 | G,,2 D,2 [C,G,]2 [E,G,]2 | G,,2 D,2 [C,G,]2 [E,G,]2 | x8 | x8 |] %13

